X:67
T:Possum in the Well
M:C
L:1/8
C:Randy Marmouze
N:Transcribed by Jamie Gans
K:D
z6DE|:â€Dâ€F2A2B2d2|edB2d2DE|F2ABA2F2|â€Aâ€E3FE2DE|
â€œDâ€F2A2B2d2|edB2d2e2|fafaâ€Aâ€f2e2|â€Dâ€d3ed2[f2d2]:||:â€Dâ€f3g fed2|
â€œGâ€g3ag2fg|â€Dâ€a2aba2f2|â€Aâ€e3fe2A2|â€Dâ€fga2fga2|â€Gâ€bafab2a2|
â€œDâ€fafaâ€Aâ€f2e2|â€Dâ€d3ed2[f2d2]:||â€_J. Gans variation, measures 7&11â€³fefaf2e2||

